X: 100299
T: EMELINA POLKA
C: Composed by J.C. Paton, Edinburgh
N: Bowing and Fingering arranged by W.B. Laybourn
R: polka
B: K\"ohler's Violin Repository, v.3, 1885 p.217 #1
F: http://www.archive.org/details/klersviolinrepos03rugg
Z: 2012 John Chambers <jc:trillian.mit.edu>
M: 2/4
L: 1/16
Q:"Vivace"
K: C
%%indent 400
P: Introduction
cd"^>"e2 AB"^>"c2 | F2G"_>"A D2E"_>"F | DB,G,B, DGBd | H[f4d4] z4 ||
!segno!|: !mf!(uEF) "Polka"|\
{A}G^FGA GFGA | G2 "^>"e4 dc | B2 "^>"f4 ed | c2ga g2EF |\
{A}G^FGA GFGA | G2 "^>"e4 dc | vB2"^>"f2- fABG | c2c2c2 :|
K: G
|: !ff!(Bc) |\
(dB)GD (GB)dg | f2A2 "^>"c4 | f2A2 (.c3.f) | e2d2 B2(Bc) |\
(dB)GD (GB)dg | f2e2 (.[c'3a3].b) | a2g2 {g}fefd | g2g2g2 :|
K: C
(EF) |\
{A}G^FGA GFGA | G2"^>"e4 dc | B2 "^>"f4 ed | c2ga g2EF |\
{A}G^FGA GFGA | G2 "^>"e4 dc | vB2vf2- fABG | c2c2c2z2 |]
K: F
|: (c3A) (d3A) | (cB)GE C2z2 | {e}g2{d}f2{c}e2{B}d2 | {A}c2B2 (Ad)c2 |\
(c3A) (d3A) | (cB)GE (.C3.F) | (E/F/)z(G/A/)z (B/c/)z(d/e/)z |\
[1 (fc)ag f2 :|[2 "Da Capo to "f2f2f2 !segno!|]

%%sep 2 1 500

